Newaita-dark/actions/22/mail-signed-part.svg

<?xml version="1.0" encoding="UTF-8"?>
<svg xmlns="http://www.w3.org/2000/svg" xmlns:xlink="http://www.w3.org/1999/xlink" width="22pt" height="22pt" viewBox="0 0 22 22" version="1.1">
<g id="surface1">
<path style=" stroke:none;fill-rule:nonzero;fill:rgb(74.117649%,74.117649%,74.117649%);fill-opacity:1;" d="M 2.730469 2.902344 C 1.722656 2.902344 0.910156 3.710938 0.910156 4.71875 L 0.910156 17.910156 C 0.910156 18.917969 1.722656 19.726562 2.730469 19.726562 L 13.1875 19.726562 L 13.1875 18.363281 L 3.183594 18.363281 C 2.679688 18.363281 2.273438 17.957031 2.273438 17.453125 L 2.273438 5.320312 L 10.390625 12.582031 C 10.691406 12.847656 11.140625 12.847656 11.4375 12.582031 L 19.554688 5.320312 L 19.554688 11.996094 L 20.921875 11.996094 L 20.921875 4.71875 C 20.921875 3.710938 20.109375 2.902344 19.101562 2.902344 Z M 3.453125 4.265625 L 18.378906 4.265625 L 10.914062 10.941406 Z M 3.453125 4.265625 "/>
<path style=" stroke:none;fill-rule:nonzero;fill:rgb(47.058824%,56.470591%,61.176473%);fill-opacity:1;" d="M 19.886719 13.296875 C 19.351562 12.761719 18.492188 12.761719 17.957031 13.296875 L 14.742188 16.511719 L 17.316406 19.085938 L 18.28125 18.121094 L 20.53125 15.867188 C 21.066406 15.335938 21.066406 14.472656 20.53125 13.941406 Z M 19.242188 14.582031 C 19.421875 14.761719 19.421875 15.046875 19.242188 15.226562 L 17.316406 17.15625 L 16.671875 16.511719 L 18.601562 14.582031 C 18.777344 14.40625 19.066406 14.40625 19.242188 14.582031 Z M 19.242188 14.582031 "/>
<path style=" stroke:none;fill-rule:evenodd;fill:rgb(14.901961%,65.098041%,60.392159%);fill-opacity:1;" d="M 14.421875 16.832031 L 16.992188 19.40625 L 14.097656 19.726562 Z M 14.421875 16.832031 "/>
</g>
</svg>

<svg xmlns="http://www.w3.org/2000/svg" width="22pt" height="22pt" viewBox="0 0 22 22"><path d="M2.73 2.902c-1.007 0-1.82.809-1.82 1.817V17.91c0 1.008.813 1.817 1.82 1.817h10.457v-1.364H3.184a.909.909 0 0 1-.91-.91V5.32l8.117 7.262c.3.266.75.266 1.046 0l8.118-7.262v6.676h1.367V4.72a1.814 1.814 0 0 0-1.82-1.817zm.723 1.364H18.38l-7.465 6.675zm0 0" fill="#bdbdbd"/><path d="M19.887 13.297a1.36 1.36 0 0 0-1.93 0l-3.215 3.215 2.574 2.574.965-.965 2.25-2.254a1.356 1.356 0 0 0 0-1.926zm-.645 1.285c.18.18.18.465 0 .645l-1.926 1.93-.644-.645 1.93-1.93a.455.455 0 0 1 .64 0zm0 0" fill="#78909c"/><path d="M14.422 16.832l2.57 2.574-2.894.32zm0 0" fill-rule="evenodd" fill="#26a69a"/></svg>
